svgs/thin/font.svg

<svg xmlns="http://www.w3.org/2000/svg" viewBox="0 0 448 512"><!--! Font Awesome Pro 6.3.0 by @fontawesome - https://fontawesome.com License - https://fontawesome.com/license (Commercial License) Copyright 2023 Fonticons, Inc. --><path d="M440 463.1h-50.43L231.5 36.72c-2.312-6.289-12.69-6.289-15 0L58.43 463.1H8c-4.406 0-8 3.582-8 8.008C0 476.4 3.594 480 8 480h128c4.406 0 8-3.582 8-8.01c0-4.426-3.594-8.008-8-8.008H75.49l50.66-136.9C126.8 327.2 127.3 327.8 128 327.8h192c.7227 0 1.186-.5898 1.852-.7695l50.66 136.9H312c-4.406 0-8 3.582-8 8.008C304 476.4 307.6 480 312 480h128c4.406 0 8-3.582 8-8.01C448 467.6 444.4 463.1 440 463.1zM131.8 311.8L224 62.56l92.21 249.3H131.8z"/></svg>

<svg xmlns="http://www.w3.org/2000/svg" viewBox="0 0 448 512"><!-- Font Awesome Pro 6.0.0-alpha2 by @fontawesome - https://fontawesome.com License - https://fontawesome.com/license (Commercial License) --><path d="M440 463.982H389.566L231.5 36.717C229.188 30.428 218.812 30.428 216.5 36.717L58.434 463.982H8C3.594 463.982 0 467.564 0 471.99C0 476.418 3.594 480 8 480H136C140.406 480 144 476.418 144 471.99C144 467.564 140.406 463.982 136 463.982H75.492L126.148 327.059C126.814 327.238 127.277 327.828 128 327.828H320C320.723 327.828 321.186 327.238 321.852 327.059L372.508 463.982H312C307.594 463.982 304 467.564 304 471.99C304 476.418 307.594 480 312 480H440C444.406 480 448 476.418 448 471.99C448 467.564 444.406 463.982 440 463.982ZM131.789 311.809L224 62.559L316.211 311.809H131.789Z"/></svg>
